X:1
T:G Major Stephen Jenks, 1803
T:Isaac Watts, 1707 (Hymn 3, Book 1) 66. 86. (S. M.)
T:Dartmouth
T:Transcribed from Jenks and Griswold, The American Compiler, 1803.
%%score [ 1 2 3 4 ]
L:1/8
Q:1/4=100
M:2/4
K:G
V:1 treble nm="Voice"
V:2 treble nm="Voice"
V:3 treble-8 nm="Tenor"
V:4 bass nm="Bass"
V:1
 B4 | d2 BG | Ad ed | d4 | z2 g2 | B2 ed | cA Be | d4 | z2 d2 | d2 BG | A2 ce | d2 cB | A3 G | %13
w: 1.~To|bring the *|glo- * rious *|news|A|heav'n- ly *|form * ap- *|pears;|He|tells the *|shep- herds *|of their *|joys, And|
 d2 (3ABc | B2 Ad | d4 | z2 d2 |: d2 g2 | ec BG | (G2 A2) | z2 d2 | BG ce | de (3dBG | A4 | z2 B2 | %25
w: ba- ni- * *|shes their *|fears.|"Go,|hum- ble|swains," * said *|he, *|"To|Da- * vid's *|ci- * ty * *|fly;|The|
 dB dB | BG BG | BG A2 | B3 g | (3edc Ac | (3Bcd (3ABc |1 B4 ||1 z2 d2 :|2 B4- || B4 |] %35
w: pro- * mised *|in- * fant *|born * to-|day Doth|in * * a *|man- * * ger * *|lie."|"Go,|||
V:2
 D4 | G2 G2 | F2 GA | B4 | z2 G2 | B2 AG | A2 BG | F4 | z2 D2 | D2 DG | F2 GB | B2 A2 | A3 B | %13
w: 2.~With|looks and|hearts se- *|rene,|Go|vi- sit *|Christ your *|King;|And|straight a *|fla- ming *|troop was|seen: The|
 G2 A2 | G2 F2 | G4 | z2 D2 |: G2 B2 | G2 EG | (G2 F2) | z2 G2 | D2 G2 | FA GB | A4 | z2 G2 | %25
w: shep- herds|heard them|sing,|"Glo-|ry to|God on *|high! *|And|heav'n- ly|peace * on *|earth;|Good-|
 BG BG | GB GB | GB (3ABc | B3 A | G2 G2 | F2 F2 |1 G4 ||1 z2 D2 :|2 G4- || G4 |] %35
w: will * to *|men, * to *|an- * gels * *|joy, At|the Re-|dee- mer's|birth!"|"Glo–|||
V:3
 G4 | dB GB | dB ef | g4 | z2 d2 | d2 cB | ec (3dBG | A4 | z2 A2 | B2 GB | d2 Bd | g2 fa | d3 d | %13
w: 3.~In|wor- * ship *|so * di- *|vine,|Let|saints em- *|ploy * their * *|tongues;|With|the ce- *|les- tial *|hosts we *|join, And|
 g2 (3edc | BG A2 | G4 | z2 G2 |: B2 d2 | c2 B2 | (B2 A2) | z2 B2 | d2 ec | (3ABc BG | d4 | z2 G2 | %25
w: loud re- * *|peat * their|songs:|"Glo-|ry to|God on|high! *|And|heav'n- ly *|peace * * on *|earth;|Good-|
 B2 GB | d2 Bd | g2 fa | g3 d | (3efg ec | (3BAG A2 |1 G4 ||1 z2 G2 :|2 G4- || G4 |] %35
w: will to *|men, to *|an- gels *|joy, At|the * * Re- *|dee- * * mer's|birth!"|"Glo–|||
V:4
 G,4 | G,2 E,2 | D,2 B,A, | G,4 | z2 G,2 | G,2 A,B, | A,2 G,2 | D,4 | z2 D,2 | G,2 E,2 | D,2 E,G, | %11
 G,2 A,2 | D,3 G, | G,2 CA, | D2 D,2 | G,4 | z2 G,2 |: G,2 G,2 | C,2 G,2 | (G,2 D,2) | z2 G,2 | %21
 G,2 C,2 | D,A, B,G, | D,4 | z2 G,2 | G,2 G,2 | G,2 G,2 | G,2 D,2 | G,3 G, | C,2 C,2 | D,2 D,2 |1 %31
 [G,,G,]4 ||1 z2 G,2 :|2 [G,,G,]4- || [G,,G,]4 |] %35

